logos/mps.svg

<?xml version="1.0" encoding="UTF-8"?>
<svg width="512px" height="133px" viewBox="0 0 512 133" version="1.1" xmlns="http://www.w3.org/2000/svg" preserveAspectRatio="xMidYMid">
    <title>MPS</title>
    <defs>
        <linearGradient x1="75.6998264%" y1="132.918092%" x2="-19.460139%" y2="11.0279359%" id="mpsLinearGradient-1">
            <stop stop-color="#0B8FFF" offset="9.1%"></stop>
            <stop stop-color="#0D94F6" offset="20.8%"></stop>
            <stop stop-color="#11A3DE" offset="39.6%"></stop>
            <stop stop-color="#18BBB7" offset="63.3%"></stop>
            <stop stop-color="#21D789" offset="87.1%"></stop>
        </linearGradient>
        <linearGradient x1="76.4604328%" y1="92.4185714%" x2="28.6694004%" y2="-29.4707143%" id="mpsLinearGradient-2">
            <stop stop-color="#0B8FFF" offset="9.1%"></stop>
            <stop stop-color="#0D94F6" offset="20.8%"></stop>
            <stop stop-color="#11A3DE" offset="39.6%"></stop>
            <stop stop-color="#18BBB7" offset="63.3%"></stop>
            <stop stop-color="#21D789" offset="87.1%"></stop>
        </linearGradient>
        <linearGradient x1="32.1736387%" y1="103.684888%" x2="64.5648993%" y2="-22.3923276%" id="mpsLinearGradient-3">
            <stop stop-color="#21D789" offset="12.3%"></stop>
            <stop stop-color="#27D788" offset="13.2%"></stop>
            <stop stop-color="#59D87B" offset="21.6%"></stop>
            <stop stop-color="#85D970" offset="30.3%"></stop>
            <stop stop-color="#ABDA67" offset="39.4%"></stop>
            <stop stop-color="#CADB5F" offset="48.7%"></stop>
            <stop stop-color="#E1DB59" offset="58.5%"></stop>
            <stop stop-color="#F2DC55" offset="68.8%"></stop>
            <stop stop-color="#FCDC53" offset="80.2%"></stop>
            <stop stop-color="#FFDC52" offset="94.6%"></stop>
        </linearGradient>
    </defs>
    <g>
        <path d="M170.630947,1.84446028 L201.253686,1.84446028 L235.196824,56.4476667 L269.13997,1.84446028 L299.76271,1.84446028 L299.76271,130.976232 L271.538156,130.976232 L271.538156,46.6710026 L235.196824,101.82872 L234.459224,101.82872 L198.486267,47.225513 L198.486267,130.976232 L170.630947,130.976232 L170.630947,1.84446028 Z M460.162007,0 C478.978373,0 495.028104,5.9024483 508.125867,16.417432 L493.367526,37.816587 C481.930331,29.8843831 470.676991,25.0879924 459.794287,25.0879924 C448.909387,25.0879924 443.190784,30.068229 443.190784,36.3398556 L443.190784,36.7105201 C443.190784,41.801657 445.183028,44.8341003 451.598235,47.6806912 L452.254589,47.9648001 C452.590228,48.1066142 452.937126,48.2481198 453.295589,48.3895508 L454.028022,48.672383 L454.028022,48.672383 L454.791832,48.9554329 C454.921779,49.0026491 455.053055,49.0498918 455.185673,49.0971695 L455.997561,49.3813262 L455.997561,49.3813262 L456.842177,49.6667409 L456.842177,49.6667409 L457.720061,49.95383 L457.720061,49.95383 L458.631752,50.2430095 L458.631752,50.2430095 L459.577791,50.5346958 L459.577791,50.5346958 L460.558718,50.8293048 L460.558718,50.8293048 L461.575074,51.1272529 L461.575074,51.1272529 L462.627397,51.4289562 L462.627397,51.4289562 L463.716229,51.734831 L463.716229,51.734831 L465.419113,52.2023749 L465.419113,52.2023749 L467.207179,52.6816455 L467.207179,52.6816455 L469.08225,53.1740476 L469.08225,53.1740476 L471.04615,53.6809856 L471.04615,53.6809856 C497.241687,60.5071318 512,69.9160579 512,92.4212705 L512,92.7904487 C512,118.431475 492.445278,132.82175 464.589173,132.82175 C444.408895,132.895142 424.906851,125.540908 409.800671,112.159857 L426.58802,92.0520922 C438.2098,101.644864 450.385361,107.732645 465.143702,107.732645 C467.280905,107.732645 469.262152,107.576689 471.072522,107.275087 L471.743372,107.15518 C479.365359,105.698195 483.774736,101.556517 483.774736,95.5570837 L483.774736,95.1879055 C483.774736,95.043999 483.772965,94.9014951 483.769321,94.760351 L483.752671,94.3409552 C483.520454,90.0484672 481.390707,87.021594 474.329847,83.9850682 L473.631042,83.6911379 C473.511975,83.6421302 473.3916,83.5931093 473.269904,83.5440699 L472.523772,83.2495676 C472.26971,83.1512974 472.010262,83.0529101 471.745326,82.954363 L470.933955,82.6581991 L470.933955,82.6581991 L470.089046,82.3608192 L470.089046,82.3608192 L469.20999,82.0619664 C469.060601,82.0120206 468.909763,81.9620027 468.757465,81.9119074 L467.826042,81.6103637 L467.826042,81.6103637 L466.858943,81.3067049 L466.858943,81.3067049 L465.855558,81.0006743 L465.855558,81.0006743 L464.815277,80.692015 L464.815277,80.692015 L463.737487,80.3804702 L463.737487,80.3804702 L462.621578,80.065783 L462.621578,80.065783 L461.466939,79.7476965 L461.466939,79.7476965 L460.272959,79.425954 L460.272959,79.425954 L459.039027,79.1002986 L459.039027,79.1002986 L456.215004,78.371131 L456.215004,78.371131 L454.687976,77.9696058 L454.687976,77.9696058 L453.18381,77.5650389 C452.935042,77.4973099 452.68724,77.4294184 452.440415,77.3613464 L450.971224,76.9506064 L450.971224,76.9506064 L449.525804,76.5346772 C449.286901,76.4648755 449.049005,76.3948218 448.812121,76.3244982 L447.403037,75.8991746 C427.382159,69.7523427 414.966222,61.3445993 414.966222,39.2933091 L414.966222,38.9226446 C414.966268,15.4952204 433.782625,0 460.162007,0 Z M361.737618,1.84446028 C392.544942,1.84446028 411.176724,20.1078019 411.176724,46.4872304 L411.176724,46.8549316 C411.176724,76.7408009 387.933155,92.2360213 358.970992,92.2360213 L337.387281,92.2360213 L337.387281,130.976306 L308.978143,130.976306 L308.978143,1.84446028 L361.737618,1.84446028 Z M359.339451,27.4854677 L337.387281,27.4854677 L337.387281,66.9626505 L359.893223,66.9626505 C374.097782,66.9626505 382.399174,58.4774224 382.399174,47.4094052 L382.399174,47.0401993 C382.399174,34.3116047 373.54402,27.4854677 359.339451,27.4854677 Z" fill="#000000"></path>
        <g transform="translate(0.000000, 1.576746)">
            <polygon fill="url(#mpsLinearGradient-1)" points="0 129.241461 129.240538 129.241461 64.3327068 64.4462546 0 0.000923153294"></polygon>
            <polygon fill="url(#mpsLinearGradient-2)" points="129.240538 129.241461 64.3327068 64.4462546 129.240538 0"></polygon>
            <polygon fill="url(#mpsLinearGradient-3)" points="93.9465413 93.9465413 64.3327068 64.4462546 129.240538 0"></polygon>
        </g>
    </g>
</svg>

<svg preserveAspectRatio="xMidYMid" viewBox="0 0 512 133" xmlns="http://www.w3.org/2000/svg">
  <defs>
    <linearGradient id="mps_svg__a" x1="75.7%" x2="-19.46%" y1="132.918%" y2="11.028%">
      <stop offset="9.1%" stop-color="#0B8FFF"/>
      <stop offset="20.8%" stop-color="#0D94F6"/>
      <stop offset="39.6%" stop-color="#11A3DE"/>
      <stop offset="63.3%" stop-color="#18BBB7"/>
      <stop offset="87.1%" stop-color="#21D789"/>
    </linearGradient>
    <linearGradient id="mps_svg__b" x1="76.46%" x2="28.669%" y1="92.419%" y2="-29.471%">
      <stop offset="9.1%" stop-color="#0B8FFF"/>
      <stop offset="20.8%" stop-color="#0D94F6"/>
      <stop offset="39.6%" stop-color="#11A3DE"/>
      <stop offset="63.3%" stop-color="#18BBB7"/>
      <stop offset="87.1%" stop-color="#21D789"/>
    </linearGradient>
    <linearGradient id="mps_svg__c" x1="32.174%" x2="64.565%" y1="103.685%" y2="-22.392%">
      <stop offset="12.3%" stop-color="#21D789"/>
      <stop offset="13.2%" stop-color="#27D788"/>
      <stop offset="21.6%" stop-color="#59D87B"/>
      <stop offset="30.3%" stop-color="#85D970"/>
      <stop offset="39.4%" stop-color="#ABDA67"/>
      <stop offset="48.7%" stop-color="#CADB5F"/>
      <stop offset="58.5%" stop-color="#E1DB59"/>
      <stop offset="68.8%" stop-color="#F2DC55"/>
      <stop offset="80.2%" stop-color="#FCDC53"/>
      <stop offset="94.6%" stop-color="#FFDC52"/>
    </linearGradient>
  </defs>
  <path d="M170.63 1.844h30.624l33.943 54.604L269.14 1.844h30.623v129.132h-28.225V46.671l-36.341 55.158h-.738l-35.973-54.603v83.75h-27.855V1.844ZM460.163 0c18.816 0 34.866 5.902 47.964 16.417l-14.758 21.4c-11.438-7.933-22.691-12.729-33.574-12.729-10.885 0-16.603 4.98-16.603 11.252v.37c0 5.092 1.992 8.124 8.407 10.97l.657.285c.335.142.682.283 1.04.425l.733.282.764.283c.13.048.261.095.394.142l.812.284.844.286.878.287.912.289.946.292.98.294 1.017.298 1.052.302 1.09.306 1.702.467 1.788.48 1.875.492 1.964.507C497.242 60.507 512 69.916 512 92.421v.37c0 25.64-19.555 40.03-47.41 40.03a82.177 82.177 0 0 1-54.79-20.661l16.788-20.108c11.622 9.593 23.797 15.68 38.556 15.68 2.137 0 4.118-.155 5.929-.457l.67-.12c7.622-1.457 12.032-5.598 12.032-11.598v-.37c0-.143-.002-.286-.006-.427l-.016-.419c-.233-4.293-2.362-7.32-9.423-10.356l-.699-.294-.361-.147-.746-.294a64.23 64.23 0 0 0-.779-.296l-.811-.296-.845-.297-.879-.299-.453-.15-.931-.302-.967-.303-1.003-.306-1.04-.309-1.079-.312-1.115-.314-1.155-.318-1.194-.322-1.234-.326-2.824-.729-1.527-.401-1.504-.405-.744-.204-1.469-.41-1.445-.416-.714-.21-1.409-.426c-20.02-6.147-32.437-14.554-32.437-36.606v-.37C414.966 15.495 433.783 0 460.162 0Zm-98.424 1.844c30.807 0 49.439 18.264 49.439 44.643v.368c0 29.886-23.244 45.381-52.206 45.381h-21.584v38.74h-28.409V1.844h52.76Zm-2.399 25.641h-21.952v39.478h22.506c14.205 0 22.506-8.486 22.506-19.554v-.369c0-12.728-8.855-19.555-23.06-19.555Z"/>
  <path fill="url(#mps_svg__a)" d="M0 129.241h129.24L64.334 64.446 0 .001z" transform="translate(0 1.577)"/>
  <path fill="url(#mps_svg__b)" d="M129.24 129.241 64.334 64.446 129.24 0z" transform="translate(0 1.577)"/>
  <path fill="url(#mps_svg__c)" d="m93.947 93.947-29.614-29.5L129.24 0z" transform="translate(0 1.577)"/>
</svg>
